X:76
T:Na\vsliukas
T:The widow
C:Traditional
O:Lithuania
Z:Bert Van Vreckem, 2001-08-11 <http://flanders.blackmill.net/music/>
Z:Transcribed from a recording by Bert Blancquaert and Hilde Raskin (2001-08-09, Dworp, Flanders),
Z:performed by Edvinas Vilkas and Lina Duduliene
N:Repeat and change tempo in part B ad libitum
M:4/4
L:1/4
K:G
"G"B B B A/G/|"C"c c c B/A/|"G"B B B A/G/|"D"A/B/4A/4 G/A/ "G"G/G/ G|"G"d d d c/B/|"C"e e e d/c/|
"G"d d d c/B/|"D"c/d/4c/4 B/A/ "G"G/G/ G|:"G"B/d/d/d/ d/e/ d|B/d/d/d/ d/e/ d|B/d/d/d/ d/e/ d|B/d/d/d/ "D"B "_ad lib.""G"d:|

